static/assets/images/icons/debank.svg

<svg width="256" height="256" viewBox="0 0 256 256" fill="none" xmlns="http://www.w3.org/2000/svg">
<path d="M31 184.989V222.821C32.0326 222.871 33.0689 222.91 34.1087 222.937C65.3838 222.02 93.0253 207.323 110.596 184.989C119.285 173.945 125.511 161.033 128.495 146.996C129.8 140.859 130.485 134.506 130.485 128C130.485 121.494 129.8 115.141 128.495 109.003C125.511 94.9674 119.285 82.0553 110.596 71.0105C93.0254 48.6775 65.3839 33.9796 34.1089 33.063C33.069 33.0899 32.0326 33.1287 31 33.1791L31 71.0105C63.9665 71.0105 90.6912 96.5256 90.6912 128C90.6912 159.474 63.9665 184.989 31 184.989Z" fill="black"/>
<path d="M149.421 222.982C182.25 222.982 208.862 197.467 208.862 165.993C208.862 151.397 203.139 138.083 193.727 128C203.139 117.917 208.862 104.603 208.862 90.007C208.862 58.5326 182.25 33.0175 149.421 33.0175H51.2457C50.0718 33.0175 52.4108 32.9873 51.2457 33.0175C82.3895 33.9341 105.015 52.6817 119.375 71.0105C126.081 71.0105 136.547 71.0105 136.547 71.0105H149.421C160.364 71.0105 169.235 79.5155 169.235 90.007C169.235 100.498 160.364 109.003 149.421 109.003H137.199C138.499 115.141 139.181 121.494 139.181 128C139.181 134.506 138.499 140.859 137.199 146.996H149.421C160.364 146.996 169.235 155.502 169.235 165.993C169.235 176.484 160.364 184.989 149.421 184.989H119.375C104.725 203.689 82.3896 222.066 51.2457 222.982C50.0717 222.982 52.4109 223.013 51.2457 222.982H149.421Z" fill="black"/>
</svg>

<svg xmlns="http://www.w3.org/2000/svg" viewBox="0 0 256 256"><path d="M31 184.989v37.832q1.55.075 3.109.116c31.275-.917 58.916-15.614 76.487-37.948 8.689-11.044 14.915-23.956 17.899-37.993a91.2 91.2 0 0 0 1.99-18.996c0-6.506-.685-12.859-1.99-18.997-2.984-14.036-9.21-26.948-17.899-37.993-17.57-22.333-45.212-37.03-76.487-37.947q-1.56.04-3.109.116V71.01c32.967 0 59.691 25.516 59.691 56.99S63.967 184.989 31 184.989"/><path d="M149.421 222.982c32.829 0 59.441-25.515 59.441-56.989 0-14.596-5.723-27.91-15.135-37.993 9.412-10.083 15.135-23.397 15.135-37.993 0-31.474-26.612-56.99-59.441-56.99H51.246c-1.174 0 1.165-.03 0 0 31.143.917 53.769 19.665 68.129 37.993h30.046c10.943 0 19.814 8.505 19.814 18.997s-8.871 18.996-19.814 18.996h-12.222A91.6 91.6 0 0 1 139.181 128c0 6.506-.682 12.859-1.982 18.996h12.222c10.943 0 19.814 8.506 19.814 18.997s-8.871 18.996-19.814 18.996h-30.046c-14.65 18.7-36.985 37.077-68.13 37.993-1.173 0 1.166.031 0 0z"/></svg>
